X:1
T:Title
%%score { ( 1 3 ) | ( 2 4 ) }
L:1/8
M:4/4
K:Bb
V:1 treble nm="Grand Piano"
V:3 treble 
V:2 bass 
V:4 bass 
V:1
 z4 z2[Q:1/4=100] [B,D]>[CE] | [DF]>[DF] [DF]>[DF] [EG]>[DF] [B,D]>[DF] | %2
[M:3/4] [EG]>[GB] [GB]>[EG] [DF]2 |[M:1/4] [B,D]>[CE] | %4
[M:4/4] [DF]>[DF] [DF]>[DB] [=EB]>[EB] [EA]>[EB] | [Ec]6 [B,D]>[CE] | %6
 [DF]>[DF] [DF]>[DF] [EG]>[DF] [B,D]>[DF] | [EG]>[GB] [GB]>[EG] [DF]2 [DF]>[DF] | %8
 [EG]>[EG] [=EB]>[EB] A>A G>A |[M:3/4] [DB]6 |[M:1/4] d>e |[M:4/4] f4 z4 | c4 z4 | %13
 [=Ec]>[Ec] [Ec]>[Ed] [Ec]>[DEB] [CEA]>[B,CG] |[M:3/4] F6 |[M:1/4] d>e |[M:4/4] f4 z4 | %17
[M:3/4] c4 z2 |[M:1/4] A>G |[M:4/4] F>B B>d d>c G>A |[M:3/4] B6 |] %21
V:2
 z4 z2 [B,,F,]>[B,,F,] | [B,,B,]>[B,,B,] [B,,B,]>[B,,B,] [B,,B,]>[B,,B,] [B,,F,]>[B,,B,] | %2
[M:3/4] [E,B,]>[E,E] [E,E]>[E,B,] [B,,B,]2 |[M:1/4] [B,,F,]>[B,,F,] | %4
[M:4/4] [B,,B,]>[B,,B,] [B,,B,]>[B,,B,] [C,G,]>[C,G,] [C,C]>[C,G,] | [F,A,]6 [B,,F,]>[B,,F,] | %6
 [B,,B,]>[B,,B,] [B,,B,]>[B,,B,] [B,,B,]>[B,,B,] [B,,F,]>[B,,B,] | %7
 [E,B,]>[E,E] [E,E]>[E,B,] [B,,B,]2 [B,,B,]>[B,,B,] | %8
 [E,B,]>[E,B,] [C,C]>[C,C] [F,CE]>[F,CE] [F,CE]>[F,E] |[M:3/4] [B,,F,]6 | %10
[M:1/4][K:treble] [B,F]>[B,CE] |[M:4/4] [B,DF]>[B,D] [B,D]>[B,D] [B,F]2 [B,F]>[B,F] | %12
 [E,E]>[E,E] [E,E]>[E,E] [E,B,E]2 [E,G,E]>[E,G,E] | [C,G,]>[C,G,] [C,G,]>[C,G,] [C,G,]>C, C,>C, | %14
[M:3/4] z2 A,>B,[K:treble] C2 |[M:1/4] [B,F]>[B,CF] | %16
[M:4/4] [B,DF]>[B,D] [B,D]>[B,D] [B,F]2 [B,F_A]>[B,FA] | %17
[M:3/4][K:bass] [E,E]>[E,E] [E,E]>[E,E] [E,B,E]2 |[M:1/4] [E,B,F]>[E,B,E] | %19
[M:4/4] [F,B,D]>[F,B,D] [F,B,D]>[F,B,F] [F,A,F]>[F,A,E] [F,CE]>[F,E] |[M:3/4] F,2 z2 z2 |] %21
V:3
 x8 | x8 |[M:3/4] x6 |[M:1/4] x2 |[M:4/4] x8 | x8 | x8 | x8 | x8 |[M:3/4] x6 |[M:1/4] x2 | %11
[M:4/4] z z/ F/ F>F d2 e>d | G>G G>G G2 B>B | x8 |[M:3/4] [A,C]2 C>D E2 |[M:1/4] x2 | %16
[M:4/4] z z/ F/ F>F d2 e>d |[M:3/4] G>G G>G G2 |[M:1/4] x2 |[M:4/4] x8 |[M:3/4] D2 E>E D2 |] %21
V:4
 x8 | x8 |[M:3/4] x6 |[M:1/4] x2 |[M:4/4] x8 | x8 | x8 | x8 | x8 |[M:3/4] x6 | %10
[M:1/4][K:treble] x2 |[M:4/4] x8 | x8 | x8 |[M:3/4] F,6[K:treble] |[M:1/4] x2 |[M:4/4] x8 | %17
[M:3/4][K:bass] x6 |[M:1/4] x2 |[M:4/4] x8 |[M:3/4] B,,2- [B,,-G,]>[B,,-G,] [B,,F,]2 |] %21

